assets/sonr-icons/warning.svg

<svg xmlns="http://www.w3.org/2000/svg" width="24" height="24" fill="none" viewBox="0 0 24 24"><path fill="#000" d="M12 7C12.552 7 13 7.448 13 8V12C13 12.552 12.552 13 12 13 11.448 13 11 12.552 11 12V8C11 7.448 11.448 7 12 7ZM11 16C11 15.448 11.448 15 12 15 12.552 15 13 15.448 13 16 13 16.552 12.552 17 12 17 11.448 17 11 16.552 11 16Z"/><path fill="#000" fill-rule="evenodd" d="M8.42095 5.21099C9.89395 2.25999 14.1059 2.25999 15.5789 5.21099L20.5719 15.215C21.8999 17.874 19.9649 21.001 16.9929 21.001H7.00695C4.03495 21.001 2.10095 17.875 3.42795 15.215L8.42095 5.21099ZM16.9929 19C18.4779 19 19.4459 17.437 18.7819 16.107L13.7889 6.10299C13.0529 4.62699 10.9459 4.62699 10.2099 6.10299L5.21695 16.107C4.55395 17.436 5.51995 19 7.00695 19H16.9929Z" clip-rule="evenodd"/></svg>

<svg xmlns="http://www.w3.org/2000/svg" width="24" height="24" fill="none"><path fill="currentColor" d="M12 7a1 1 0 0 1 1 1v4a1 1 0 0 1-2 0V8a1 1 0 0 1 1-1m-1 9a1 1 0 1 1 2 0 1 1 0 0 1-2 0"/><path fill="currentColor" fill-rule="evenodd" d="M8.42 5.211c1.474-2.951 5.686-2.951 7.159 0l4.993 10.004c1.328 2.659-.607 5.786-3.58 5.786H7.008c-2.972 0-4.906-3.126-3.579-5.786zM16.994 19c1.485 0 2.453-1.563 1.789-2.893L13.789 6.103c-.736-1.476-2.843-1.476-3.58 0L5.218 16.107A2 2 0 0 0 7.007 19z" clip-rule="evenodd"/></svg>
